svgs/thin/transporter-5.svg

<svg xmlns="http://www.w3.org/2000/svg" viewBox="0 0 512 512"><!-- Font Awesome Pro 6.0.0-alpha2 by @fontawesome - https://fontawesome.com License - https://fontawesome.com/license (Commercial License) --><path d="M376 448H136C113.938 448 96 465.938 96 488V504C96 508.422 99.594 512 104 512S112 508.422 112 504V488C112 474.766 122.781 464 136 464H376C389.219 464 400 474.766 400 488V504C400 508.422 403.594 512 408 512S416 508.422 416 504V488C416 465.938 398.062 448 376 448ZM88 168H56V136C56 131.578 52.406 128 48 128S40 131.578 40 136V168H8C3.594 168 0 171.578 0 176S3.594 184 8 184H40V216C40 220.422 43.594 224 48 224S56 220.422 56 216V184H88C92.406 184 96 180.422 96 176S92.406 168 88 168ZM232 16H280C284.406 16 288 12.422 288 8S284.406 0 280 0H232C227.594 0 224 3.578 224 8S227.594 16 232 16ZM192 144H320C324.406 144 328 140.422 328 136S324.406 128 320 128H192C187.594 128 184 131.578 184 136S187.594 144 192 144ZM504 40H472V8C472 3.578 468.406 0 464 0S456 3.578 456 8V40H424C419.594 40 416 43.578 416 48S419.594 56 424 56H456V88C456 92.422 459.594 96 464 96S472 92.422 472 88V56H504C508.406 56 512 52.422 512 48S508.406 40 504 40ZM320 400C324.406 400 328 396.422 328 392S324.406 384 320 384H192C187.594 384 184 387.578 184 392S187.594 400 192 400H320ZM408 256H104C99.594 256 96 259.578 96 264S99.594 272 104 272H408C412.406 272 416 268.422 416 264S412.406 256 408 256Z"/></svg>

<svg xmlns="http://www.w3.org/2000/svg" viewBox="0 0 512 512"><!--! Font Awesome Pro 6.3.0 by @fontawesome - https://fontawesome.com License - https://fontawesome.com/license (Commercial License) Copyright 2023 Fonticons, Inc. --><path d="M376 448h-240C113.9 448 96 465.9 96 488v16C96 508.4 99.59 512 104 512s8-3.578 8-8v-16c0-13.23 10.78-24 24-24h240c13.22 0 24 10.77 24 24v16c0 4.422 3.594 8 8 8S416 508.4 416 504v-16C416 465.9 398.1 448 376 448zM88 168h-32v-32C56 131.6 52.41 128 48 128S40 131.6 40 136v32h-32C3.594 168 0 171.6 0 176s3.594 8 8 8h32v32C40 220.4 43.59 224 48 224s8-3.578 8-8v-32h32C92.41 184 96 180.4 96 176S92.41 168 88 168zM232 16h48C284.4 16 288 12.42 288 8S284.4 0 280 0h-48C227.6 0 224 3.578 224 8S227.6 16 232 16zM192 144h128c4.406 0 8-3.578 8-8S324.4 128 320 128H192C187.6 128 184 131.6 184 136S187.6 144 192 144zM504 40h-32v-32C472 3.578 468.4 0 464 0s-8 3.578-8 8v32h-32C419.6 40 416 43.58 416 48s3.594 8 8 8h32v32C456 92.42 459.6 96 464 96s8-3.578 8-8v-32h32C508.4 56 512 52.42 512 48S508.4 40 504 40zM320 400c4.406 0 8-3.578 8-8S324.4 384 320 384H192c-4.406 0-8 3.578-8 8S187.6 400 192 400H320zM408 256h-304C99.59 256 96 259.6 96 264S99.59 272 104 272h304C412.4 272 416 268.4 416 264S412.4 256 408 256z"/></svg>
